icons/sail-filled.svg

<svg xmlns="http://www.w3.org/2000/svg" width="256" height="256" fill="none"><rect width="256" height="256" fill="#38BDF7" rx="60"/><path fill="#fff" d="M67.25 187.25c13.5 15.375 31.5 25.5 53.25 27.75V109.25z" opacity=".5"/><path fill="#fff" d="M128 38c-49.875 0-90 40.125-90 90s40.125 90 90 90 90-40.125 90-90-40.125-90-90-90m-75 90c0-41.25 33.75-75 75-75s75 33.75 75 75c0 16.125-5.25 31.125-14.25 43.5L128 79.25V203c-41.25 0-75-33.75-75-75"/></svg>

<svg width="256" height="256" viewBox="0 0 256 256" fill="none" xmlns="http://www.w3.org/2000/svg">
<rect width="256" height="256" rx="60" fill="#38BDF7" />
<path opacity="0.5" d="M67.25 187.25C80.75 202.625 98.75 212.75 120.5 215V109.25L67.25 187.25Z" fill="white"/>
<path d="M128 38C78.125 38 38 78.125 38 128C38 177.875 78.125 218 128 218C177.875 218 218 177.875 218 128C218 78.125 177.875 38 128 38ZM53 128C53 86.75 86.75 53 128 53C169.25 53 203 86.75 203 128C203 144.125 197.75 159.125 188.75 171.5L128 79.25V203C86.75 203 53 169.25 53 128Z" fill="white"/>
</svg>
